src/components/00-materials/images-raw/Salooncar.svg

<svg width="96" height="96" viewBox="0 0 96 96" fill="none" xmlns="http://www.w3.org/2000/svg">
<path d="M21.79 72.1301C26.4844 72.1301 30.29 68.2618 30.29 63.4901C30.29 58.7184 26.4844 54.8501 21.79 54.8501C17.0956 54.8501 13.29 58.7184 13.29 63.4901C13.29 68.2618 17.0956 72.1301 21.79 72.1301Z" stroke="#00008F" stroke-width="2" stroke-linecap="round" stroke-linejoin="round"/>
<path d="M21.79 67.4103C23.9218 67.4103 25.65 65.6553 25.65 63.4903C25.65 61.3254 23.9218 59.5703 21.79 59.5703C19.6582 59.5703 17.93 61.3254 17.93 63.4903C17.93 65.6553 19.6582 67.4103 21.79 67.4103Z" stroke="#00008F" stroke-width="2" stroke-linecap="round" stroke-linejoin="round"/>
<path d="M72.91 72.1301C77.6044 72.1301 81.41 68.2618 81.41 63.4901C81.41 58.7184 77.6044 54.8501 72.91 54.8501C68.2156 54.8501 64.41 58.7184 64.41 63.4901C64.41 68.2618 68.2156 72.1301 72.91 72.1301Z" stroke="#00008F" stroke-width="2" stroke-linecap="round" stroke-linejoin="round"/>
<path d="M72.91 67.4103C75.0418 67.4103 76.77 65.6553 76.77 63.4903C76.77 61.3254 75.0418 59.5703 72.91 59.5703C70.7782 59.5703 69.05 61.3254 69.05 63.4903C69.05 65.6553 70.7782 67.4103 72.91 67.4103Z" stroke="#00008F" stroke-width="2" stroke-linecap="round" stroke-linejoin="round"/>
<path d="M30.53 65.3502H63.94M82.26 65.3702H89.35C90.318 65.3702 91.2464 64.9856 91.9309 64.3011C92.6154 63.6166 93 62.6882 93 61.7202V53.2502C93 51.3802 92.33 49.8702 90.47 49.8702C90.47 46.8702 88.47 43.4802 85.55 42.7802L69.31 37.9002C69.31 37.9002 58 28.0002 52.33 25.3902C46.66 22.7802 35 25.0002 26 26.4602C22 29.0002 11.44 38.7502 5.53 38.7502V46.3402C4.859 46.3402 4.21548 46.6067 3.74102 47.0812C3.26655 47.5557 3 48.1992 3 48.8702V60.8002C2.99741 61.4027 3.17632 61.9921 3.51342 62.4915C3.85053 62.9909 4.33021 63.3772 4.89 63.6002L9.28 65.3702H12.81M82 42.2802C82.85 45.6502 85 49.8702 90.44 49.8702" stroke="#00008F" stroke-width="2" stroke-linecap="round" stroke-linejoin="round"/>
<path d="M30 60H65M3 60H14M81 60H93M41 31V60M27 35V44.12M66.78 44.12H18.72C22.2729 39.8921 26.0377 35.8469 30 32C38.79 30.52 46.94 29.71 50 31C55.8809 34.9925 61.4869 39.3757 66.78 44.12ZM5.53 38.75V46.34H10.59C10.59 41.28 5.53 38.75 5.53 38.75Z" stroke="#00008F" stroke-width="2" stroke-linecap="round" stroke-linejoin="round"/>
</svg>

<svg width="96" height="96" viewBox="0 0 96 96" fill="none" xmlns="http://www.w3.org/2000/svg"><path d="M21.79 72.13c4.694 0 8.5-3.868 8.5-8.64s-3.806-8.64-8.5-8.64-8.5 3.868-8.5 8.64 3.806 8.64 8.5 8.64z" stroke="#00008F" stroke-width="2" stroke-linecap="round" stroke-linejoin="round"/><path d="M21.79 67.41c2.132 0 3.86-1.755 3.86-3.92s-1.728-3.92-3.86-3.92c-2.132 0-3.86 1.755-3.86 3.92s1.728 3.92 3.86 3.92zM72.91 72.13c4.694 0 8.5-3.868 8.5-8.64s-3.806-8.64-8.5-8.64-8.5 3.868-8.5 8.64 3.806 8.64 8.5 8.64z" stroke="#00008F" stroke-width="2" stroke-linecap="round" stroke-linejoin="round"/><path d="M72.91 67.41c2.132 0 3.86-1.755 3.86-3.92s-1.728-3.92-3.86-3.92c-2.132 0-3.86 1.755-3.86 3.92s1.728 3.92 3.86 3.92z" stroke="#00008F" stroke-width="2" stroke-linecap="round" stroke-linejoin="round"/><path d="M30.53 65.35h33.41m18.32.02h7.09A3.65 3.65 0 0093 61.72v-8.47c0-1.87-.67-3.38-2.53-3.38 0-3-2-6.39-4.92-7.09L69.31 37.9S58 28 52.33 25.39C46.66 22.78 35 25 26 26.46 22 29 11.44 38.75 5.53 38.75v7.59A2.53 2.53 0 003 48.87V60.8a3 3 0 001.89 2.8l4.39 1.77h3.53M82 42.28c.85 3.37 3 7.59 8.44 7.59" stroke="#00008F" stroke-width="2" stroke-linecap="round" stroke-linejoin="round"/><path d="M30 60h35M3 60h11m67 0h12M41 31v29M27 35v9.12m39.78 0H18.72A163.496 163.496 0 0130 32c8.79-1.48 16.94-2.29 20-1a158.654 158.654 0 0116.78 13.12zM5.53 38.75v7.59h5.06c0-5.06-5.06-7.59-5.06-7.59z" stroke="#00008F" stroke-width="2" stroke-linecap="round" stroke-linejoin="round"/></svg>
